!!!!SEGMENT: pl-wumfc--n68232--001-019_moniuszko-stanislaw--paria-wyciag-fortepianowy-akt-ii-scena-v-djalog.krn
!!!cenid: 18xx:4149
!!!COM: Moniuszko, Stanisław
!!!COM-rismID: pe30008351
!!!CDT: 1819/05/05-1872/06/04
!!!CNT: Polish
!!!GTL: Paria – wyciąg fortepianowy
!!!OTL: Akt II. Scena V. Djalog
!!!OMV: 019
!!!PDT:
!!!AGN:
!!!SMS-siglum: PL-Wumfc
!!!SMS-shelfmark: N68232
!!!SMS-shelfwork: 001-019 G
!!!SMS-variant:
!!!SMS-altvar:
!!!NIFC-rismSourceID: 1001171381
!!!NIFC-rismChildID: 1001171381
!!!NIFC-islandoraID: pl-wumfc:7210
!!!URL-pdf-islandora: https://repozytorium.nifc.pl/islandora/object/pl-wumfc%3A7210/datastream/PDF/view
!!!URL-scan: https://polish.musicsources.pl/pl/lokalizacje/galeria/druki-muzyczne/12634/1 @EN{Scan on Polish Music Sources Website} @PL{Skany w portalu Dziedzictwo Muzyki Polskiej w otwartym dostępie}
!!!IIIF:
!!!ONB-nifc: UWAGA: str. 72. Uwaga: proszę w pliku umieszczać obsadę, która występuje tylko w danej części.
!!!OMD: Moderato.
!!!AIN: 1 piano 1 vox
!!!key: D-
**kern	**kern	**dynam	**kern	**text	**text
*part2	*part2	*part2	*part1	*part1	*part1
*staff3	*staff2	*	*staff1	*staff1	*staff1
*I"Piano.	*I"Piano.	*	*I"R.\nR.	*	*
*I'	*I'	*	*I'	*	*
*Ipiano	*Ipiano	*	*Ivox	*	*
*ICklav	*ICklav	*	*ICvox	*	*
*clefF4	*clefG2	*	*clefG2	*	*
*k[]	*k[]	*	*k[]	*	*
*D-:	*D-:	*	*D-:	*	*
*M4/4	*M4/4	*	*M4/4	*	*
*met(c)	*met(c)	*	*met(c)	*	*
=1	=1	=1	=1	=1	=1
*^	*^	*	*	*	*
!	!	!LO:TX:a:B:t=79:rj	!	!	!	!	!
2B/	(4E\	(4g/	2.e\	p	1ryy	.	.
.	4D\	4g#X/	.	.	.	.	.
4A/	4C#X\	4a/	.	.	.	.	.
4G#X/	4BB\	4e#X/	4dn\	.	.	.	.
=2	=2	=2	=2	=2	=2	=2	=2
2F#X/	4AA#X\	4f#X/	4c#X\	.	1ryy	.	.
.	4AAn\	4d#X/	4cn\	.	.	.	.
4E/	4GG#X\	4e/	4B\	.	.	.	.
4E-X/	4FF#X\)	4cn/)	4A\	.	.	.	.
*v	*v	*	*	*	*	*	*
*	*v	*v	*	*	*	*
=3||	=3||	=3||	=3||	=3||	=3||
*k[b-e-a-d-g-]	*k[b-e-a-d-g-]	*	*k[b-e-a-d-g-]	*	*
*^	*	*	*	*	*
N(>8D-L (8FFn/	2ryy	2d- 2A-/	.	1ryy	.	.
8AA-/	.	.	.	.	.	.
8D-/	.	.	.	.	.	.
8F/J	.	.	.	.	.	.
2A-/)	4r	8r	.	.	.	.
.	.	8f/L	.	.	.	.
.	8AA-\	8a-/	.	.	.	.
.	8r	8dd-/JN)	.	.	.	.
=4	=4	=4	=4	=4	=4	=4
*	*	*^	*	*	*	*
*	*	*	*^	*	*	*	*
(8EE-/L	2ryy	(4.cc/	1g-	2.c\	.	1ryy	.	.
8AA-/	.	.	.	.	.	.	.	.
8E-/	.	.	.	.	.	.	.	.
8G-/J	.	8a-/	.	.	.	.	.	.
2A-/)	4r	8g-/L	.	.	.	.	.	.
.	.	8e-/	.	.	.	.	.	.
.	8AA-\	8c/	.	(<4c\	.	.	.	.
.	8r	8b-/J)	.	.	.	.	.	.
*	*	*	*v	*v	*	*	*	*
=5	=5	=5	=5	=5	=5	=5	=5
(8DD-/L	2ryy	[2a- 2f/	[2d-\)	.	1ryy	.	.
8AA-/	.	.	.	.	.	.	.
8D-/	.	.	.	.	.	.	.
8F/J	.	.	.	.	.	.	.
2A-/)	4r	8a-]L 8f 8d-/]	2ryy	.	.	.	.
.	.	(8f/	.	.	.	.	.
.	8AA-\	8a-/	.	.	.	.	.
.	8r	8dd-/J)	.	.	.	.	.
*v	*v	*	*	*	*	*	*
!!LO:LB:g=original
=6	=6	=6	=6	=6	=6	=6
(8DD-/L	(4..dd-^/	2a- 2g- 2e-\	.	1r	.	.
8AA-/	.	.	.	.	.	.
8E-/	.	.	.	.	.	.
8G-/J	.	.	.	.	.	.
.	16cc/	.	.	.	.	.
4A-/)	8a-/L	4r	.	.	.	.
.	16g-/L	.	.	.	.	.
.	16f/J	.	.	.	.	.
8G- 8AA-\	8e-/	4c\	.	.	.	.
8r	8b-/J)	.	.	.	.	.
=7	=7	=7	=7	=7	=7	=7
*^	*	*	*	*	*	*
*	*	*	*	*	*ITrd8c12	*	*
!	!	!	!	!	!LO:TX:a:i:t=Ratef. (giungendo dal fondo)	!	!
!	!	!	!	!	!LO:TX:a:t=Ratef. (wchodzac glebio)	!	!
(8DD-/L	2ryy	(2b-/	[2f [2d-\	.	2r	.	.
8AA-/	.	.	.	.	.	.	.
8D-/	.	.	.	.	.	.	.
8F/J	.	.	.	.	.	.	.
2A-/)	4r	8a-/)	8f] 8d-\]	.	4r	.	.
.	.	8fL 8d-/	4.ryy	.	.	.	.
*	*	*	*	*	*clefG2	*	*
!	!	!	!	!	!LO:TX:t=P:problem=głosy męskie zapisane bez przenośnika oktawowego	!	!
.	8d- 8D-\	8a- 8f/	.	.	8A-/	Przy-	Un
.	8r	8ffJ 8a-/	.	.	8A-/	-był	ve-
*v	*v	*	*	*	*	*	*
=8	=8	=8	=8	=8	=8	=8
(8C/L	(4.ee-/	2a- 2e-\	.	4A-/	tu	-gliar-
8E-/	.	.	.	.	.	.
8A-/	.	.	.	8A-/	ja-	-do
8AA-/J)	8cc/	.	.	8A-/	-kiś	che_ar-
4F 4D-\	8a-/L	2ryy	.	4F/	sta-	-ri-
.	8f/	.	.	.	.	.
4B- 4F 4BB-\	8d-/	.	.	8F/	-rzec	-va
.	8dd-/J)	.	.	8F/	po-	da
=9	=9	=9	=9	=9	=9	=9
(<4AA-/	(4.cc/	8fL 8c\	.	4A-/	-dro-	lun-
.	.	8e-\J	.	.	.	.
8BB-\L	.	4d-\	.	8F/	-zny,	-ge,
8B-\J	8b-/	.	.	8r	.	.
8FF/L	8a-/L	4d-\	.	4d-\	W_nim	sfi-
.	8qcc/	.	.	.	.	.
8F/	8b-/	.	.	.	.	.
8GG-/	8g-/	4B-\	.	8B-\	u-	-ni-
8G-/J)	8e-/J)	.	.	8G-/	-bo-	-to_e
!!LO:LB:g=original
=10	=10	=10	=10	=10	=10	=10
*^	*	*	*	*	*	*
(8F/L	2AA-\	(>4d-^/	2ryy	.	8.F/	-gie-	mi-
8D-/	.	.	.	.	.	.	.
.	.	.	.	.	16G-/	go	-se-
8F/	.	8A-/L	.	.	8A-/	zdra-	-ro,_so-
8A-/J)	.	8fJ 8d-/)	.	.	8A-/	-dza	-stò
(8E-/L	2AA-\	(4.a-/	(8c\L	.	8A-/	u-	a
8F/	.	.	8d-\	.	8F/	-biór	bre-
8D-/	.	.	8B-\	.	8A-/	i	-ve
8E-/J)	.	8g-/)	8c\J)	.	8G-/	po-	ri-
=11	=11	=11	=11	=11	=11	=11	=11
(8D-/L	2ryy	[2f/	[2d-\	.	4F/	-ko-	-po-
8AA-/	.	.	.	.	.	.	.
8D-/	.	.	.	.	4F/	-ra.	-so.
8F/J	.	.	.	.	.	.	.
2A-/)	4r	8f/]	8d-\]	.	2r	.	.
.	.	(>8d-/L	4.ryy	.	.	.	.
.	8D-\	8f/	.	.	.	.	.
.	8r	8gn/J)	.	.	.	.	.
=12	=12	=12	=12	=12	=12	=12	=12
!LO:N:vis=2.	!	!LO:N:vis=4.	!	!	!	!	!
(8C/L	2.C\	4..a-/	2.f\	.	8r	.	.
8F/	.	.	.	.	8F/	Spy-	Qua-
8A-/	.	.	.	.	8A-/	-ta-	-le
8c/J)	.	.	.	.	8A-/	-ny	mo-
.	.	16a-/	.	.	.	.	.
.	.	8qcc/	.	.	.	.	.
4d-/	.	(8.b-/L	.	.	8.B-\	czy-	-ren-
.	.	16a-/K	.	.	16A-/	-by	-te
(4Gn/	4C\	8.b-/	4en\	.	8B-\	chciał	che_il
.	.	.	.	.	8c\	jał-	so-
.	.	16cc/Jk)	.	.	.	.	.
*v	*v	*	*	*	*	*	*
*	*v	*v	*	*	*	*
!!LO:LB:g=original
=13	=13	=13	=13	=13	=13
!LO:TX:t=P:problem=brak zakończenia łuku	!	!	!	!	!
(8FL 8FF/)	[2a- [2f/	.	4c\	-muż-	-spin-
8C/	.	.	.	.	.
8F/	.	.	8F/	-ny?	-ge,
8A-/J)	.	.	16r	.	.
.	.	.	16F/	Wy-	prof-
2c\	8a-]L 8f/]	.	4.A-/	-mie-	-fer-
.	8f/	.	.	.	.
.	8a-/	.	.	.	.
.	8b-/J	.	8B-\	-nil	-se_il
=14	=14	=14	=14	=14	=14
*^	*^	*	*	*	*
*	*^	*	*	*	*	*	*
(8E-/L	4E-\	2.ryy	4..cc/	2a-\	.	4.c\	wiel-	no-
8c/	.	.	.	.	.	.	.	.
8e-/	4ryy	.	.	.	<	.	.	.
8E-/J)	.	.	.	.	.	8c\	-kie	-me
.	.	.	16cc/	.	.	.	.	.
.	.	.	8qee-/	.	.	.	.	.
(8F/L	2BB-\	.	8.dd-/L	4a-\	.	8.d-\	i-	d`I-
8A-/J)	.	.	.	.	.	.	.	.
.	.	.	16cc/K	.	.	16c\	-mię	-da-
4d-/	.	(<8B-\L	8.dd- 8.a- 8.f/	4ryy	[	8.d-\	I-	-mor
.	.	8E-\J)	.	.	.	.	.	.
.	.	.	16gn/Jk	.	.	16e-\	-da-	glo-
*	*v	*v	*	*	*	*	*	*
=15	=15	=15	=15	=15	=15	=15	=15
2c/	(8AA-\L	([4.ee-/	2a-\	>	2e-\	-mo-	-rio-
.	8E-\	.	.	.	.	.	.
.	8A-\	.	.	.	.	.	.
.	8E-\J)	32ee-/LLL]	.	.	.	.	.
.	.	32dd-/	.	.	.	.	.
.	.	32cc/	.	.	.	.	.
.	.	32b-/JJJ	.	.	.	.	.
8c/	8A-\	16a-/)	2ryy	.	8A-/	-ra.	-so.
.	.	16r	.	]	.	.	.
*	*	*	*	*	*clefG2	*	*
=-	=-	=-	=-	=-	=-	=-	=-
*	*	*	*	*	*ITrd0c0	*	*
!	!	!	!	!	!LO:TX:a:i:t=Neala	!	!
!	!	!	!	!	!LO:TX:a:t=Neala.	!	!
8r	4.ryy	(>8a-/L	.	.	8a-/	J	Eb-
8A- 8D-\	.	8dd- 8f/	.	.	4dd-\	cóż?	-ben?
8r	.	8ff/J)	.	.	.	.	.
*v	*v	*	*	*	*	*	*
*	*v	*v	*	*	*	*
=16	=16	=16	=16	=16	=16
*	*	*	*ITrd8c12	*	*
(8C\L	(4.ee- (4.a-\	.	8r	.	.
*	*	*	*clefG2	*	*
!	!	!	!LO:TX:a:i:t=Ratef.	!	!
!	!	!	!LO:TX:a:t=Ratef.	!	!
8E-\	.	.	8A-/	Na	Piu
8C 8AA-\	.	.	8c\	in-	vol-
[8A-\J)	8cc 8e-/))	.	8A-/	-ne	-te_in-
8A-]L 8D-\	8a-L 8f/	.	4F/	za-	-ter-
(8A-\	8f 8d-/	.	.	.	.
8B- 8BB-\	8d-/	.	4F/	-py-	-ro-
8F\J)	8dd-/J	.	.	.	.
!!LO:PB:g=original
=17	=17	=17	=17	=17	=17
*	*^	*	*	*	*
(8AA-\L	(4.cc/	8c\L	.	4A-/	-ta-	-ga-
8A-\	.	8e-\J	.	.	.	.
8BB-\	.	2d-\	.	8F/	-nia	-to,
8B-\J)	8b-/	.	.	8F/	dzi-	ri-
(8FF/L	8a-/L	.	.	4.d-\	-wacz-	-spo-
.	8qcc/	.	.	.	.	.
8F/	8b-/	.	.	.	.	.
8GG-/	8g-/	4B-\	.	.	.	.
8G-/J)	8e-/J)	.	.	8B-\	-ne	-ste
=18	=18	=18	=18	=18	=18	=18
*^	*	*	*	*	*	*
8AA-/L	2AA-\	(4d-/	2ryy	.	8A-/	da-	stra-
8D-/	.	.	.	.	8d-\	-wał	-ne
8F/	.	8A-/L)	.	.	8F/	od-	mi
8D-/J	.	16r	.	.	8A-/	-po-	por-
.	.	16fJk 16d-/	.	.	.	.	.
4ryy	2AA-\	(4.f 4.d-/	8A-\L	.	4A-/	-wie-	-ge-
.	.	.	8An\	.	.	.	.
4G-/	.	.	8B-\	.	8A-/	-dzi	-a.
.	.	8e-/)	8c\J	.	8r	.	.
*v	*v	*	*	*	*	*	*
=19	=19	=19	=19	=19	=19	=19
(8FL 8D-\	2d-/	2ryy	.	4r	.	.
8A-\	.	.	.	.	.	.
8D-\	.	.	.	4d-\	Tak,	Si,
8AA-\J)	.	.	.	.	.	.
!	!LO:TX:b:i:t=m.d.	!	!	!	!	!
8DD-\	8r	8F</	.	8r	.	.
8r	(8d-/L	4.ryy	.	8d-\	że	che_in
4r	8f/	.	.	16d-\LL	ła-	bre-
.	.	.	.	16c\JJ	.	.
.	8gn/J)	.	.	8B-\	-two	-ve in-
=20	=20	=20	=20	=20	=20	=20
*^	*	*	*	*	*	*
(8C/L	2C\	4.a-/	2e-\	.	4.e-\	o-	-do-
8E-/J	.	.	.	.	.	.	.
2A-/)	.	.	.	.	.	.	.
.	.	8a-/	.	.	8E-/	-ko	-vi-
.	.	8qcc/	.	.	.	.	.
.	(8D-\L	(8.b-/L	4f\	.	4.F/	w_nim	-nar
.	8C\	.	.	.	.	.	.
.	.	16a-/K	.	.	.	.	.
(8F/L	8BB-\	8.b-/	4d-\	.	.	.	.
8Gn/J)	8E-\J)	.	.	.	8Gn/	do-	po-
.	.	16cc/Jk)	.	.	.	.	.
*v	*v	*	*	*	*	*	*
!!LO:LB:g=original
=21	=21	=21	=21	=21	=21	=21
8AA-/	[2a-/	(4.c\	.	4A-/	-śle-	-te-
(8E-\L	.	.	.	.	.	.
8A-\	.	.	.	8c\	-dzi	-a,
8B-\J)	.	8d-\	.	8r	.	.
8c\	8a-/]	8e-\)	.	4A-/	Zuak	che
8r	(8a-/L	4.ryy	.	.	.	.
4r	8a-/	.	.	8A-/	nie-	l`in-
.	8b-/J)	.	.	8B-\	-o-	-fe-
=22	=22	=22	=22	=22	=22	=22
*^	*	*	*	*	*	*
(8FF/L	2ryy	4.cc/	2a- 2f\	.	4c\	-myl-	-li-
8C/	.	.	.	.	.	.	.
8F/	.	.	.	.	8c\	-ny	-ce
8A-/J)	.	8cc/	.	<	8c\	smu-	è
.	.	8qee-/	.	.	.	.	.
!	!	!	!	!	!LO:N:vis=8	!	!
(8BB-/L	4BB-\	(8.dd-/L	4a- 4f\	.	8.d-\	-tne-	di
8A-/J)	.	.	.	.	.	.	.
.	.	16cc/K	.	.	16c\	-go	ra-
8EE-/L	4EE-\	8.dd-/	4gn\	.	8.d-\	o-	-gion
8B-/J	.	.	.	[	.	.	.
.	.	16ee-/Jk)	.	.	16e-\	-błą-	or-
=23	=23	=23	=23	=23	=23	=23	=23
!	!	!LO:TX:a:B:t=80:rj	!	!	!	!	!
2c/	8AA-\L	([4.ee-/	2a-\	.	2e-\	-ka-	-ba-
.	8E-\	.	.	>	.	.	.
.	8A-\	.	.	.	.	.	.
.	8E-\J	32ee-/LLL]	.	.	.	.	.
.	.	32dd-/	.	.	.	.	.
.	.	32cc/	.	.	.	.	.
.	.	32b-/JJJ	.	.	.	.	.
8c/	8A-\	16a-/)	2ryy	.	8A-/	-nia.	-to.
.	.	16r	.	]	.	.	.
*	*	*	*	*	*clefG2	*	*
=-	=-	=-	=-	=-	=-	=-	=-
*	*	*	*	*	*ITrd0c0	*	*
!	!	!	!	!	!LO:TX:a:i:t=Neala.	!	!
!	!	!	!	!	!LO:TX:a:t=Neala.	!	!
8r	4.ryy	(>8a-/L	.	pp	8a-/	Wszy-	Chi-
8A- 8D-\	.	8dd- 8f/	.	.	8f/	-scy	-un-
8r	.	8ff/J)	.	.	8dd-\	co	-que_a
*v	*v	*	*	*	*	*	*
*	*v	*v	*	*	*	*
!!LO:LB:g=original
=24	=24	=24	=24	=24	=24
(8C\L	(4.ee- 4.a-\	.	4.cc\	wspar-	noi
8E-\	.	.	.	.	.
8C 8AA-\	.	.	.	.	.
[8A-\J)	8cc 8e-/	.	8a-/	-cia	soe-
8A-]L 8D-\	8a-L 8f/	.	8f/	lub	-cor-
(8A-\	8f 8d-/	.	8d-/	o-	-so
8B- 8BB-\	8d-/	.	8f/	-pie-	chie-
8F\J)	8dd-/J)	.	8b-\	-ki	-da_o`a-
=25	=25	=25	=25	=25	=25
*	*^	*	*	*	*
8AA-\L	(4.cc/	8c\L	.	4a-/	chcą,	-sil
8A-\J	.	8e-\J	.	.	.	.
8BB-\L	.	2d-\	.	8r	.	.
8B-\J	8b-/	.	.	8d-/	Dziś	di-
8FF/L	16a-/LL	.	.	4a-/	wię-	-rit-
.	16an/	.	.	.	.	.
8F/J	16cc/	.	.	.	.	.
.	16b-/J	.	.	.	.	.
8GG-\L	8g-/	4B-\	.	8g-/	-ksze	-to
8G-\J	8e-/J)	.	.	8e-/	niż	mag-
*	*v	*v	*	*	*	*
=26	=26	=26	=26	=26	=26
*^	*	*	*	*	*
(8AA-/L	2AA-\	(4d-^/	.	4.b-\	zwy-	-gior_ha
8D-/	.	.	.	.	.	.
8F/	.	8A-/L)	.	.	.	.
8D-/J)	.	16r	.	8a-/	-kle	in
.	.	16fJk 16d-/	.	.	.	.
(8AA-/L	2AA-\	4f [4d-^/	.	4.dd-\	ma-	og-
8F/	.	.	.	.	.	.
8A-/	.	8d-/L]	.	.	.	.
8F/J)	.	16r	.	8f/	-ją	-gi_al-
.	.	16b-Jk 16d-/	.	.	.	.
*v	*v	*	*	*	*	*
=27	=27	=27	=27	=27	=27
4.G- 4.E- 4.AA-/	(4.b- 4.d-^/	.	4e-/	do	-la
.	.	.	4e-/	nich	pie-
8r	8b--/	.	.	.	.
4r	8g-/L	.	2a-/	pra-	-ta-
.	8e-/	.	.	.	.
8G- 8E- 8AA-\	8c/	.	.	.	.
8r	8a-/J)	.	.	.	.
!!LO:LB:g=original
=28	=28	=28	=28	=28	=28
*^	*	*	*	*	*
*	*^	*	*	*	*	*
(8F/L	(8DD-/L	1DD-	[>1d-	<	4d-/	-wo	-de,
8G-/	8EE-/	.	.	.	.	.	.
8Gn/	8EEn/	.	.	.	8r	.	.
8A-/J	8FF/J	.	.	[	8dd-\	W_na-	nel
8B-/L	8GG-/L	.	.	>	4.dd-\	-sze-	di
8A-/	8FF/	.	.	.	.	.	.
8G/	8EE/	.	.	.	.	.	.
8G-X/J	8EE-X/J	.	.	]	8dd-\	-go	del
=29	=29	=29	=29	=29	=29	=29	=29
8F/L	8DD-/L	1DD-	1d-_>	<	4.dd-\	związ-	no-
8G-/	8EE-/	.	.	.	.	.	.
8A-/	8FF/	.	.	.	.	.	.
8B--/J	8GG-/J	.	.	[	8d-/	-ku	-stro_i-
8c-X/L	8AA-/L	.	.	>	4d-/	dnie.	-men.
8B--/	8GG-/	.	.	.	.	.	.
8A-/	8FF/	.	.	.	4r	.	.
8G-/J	8EE-/J	.	.	]	.	.	.
*v	*v	*v	*	*	*	*	*
=30	=30	=30	=30	=30	=30
8D- 8DD-/))	(16d-/LL]	.	2r	.	.
.	16A-/	.	.	.	.
8r	16d-/	.	.	.	.
.	16e-/JJ	.	.	.	.
4r	8f/)	.	.	.	.
.	8r	.	.	.	.
!	!LO:TX:b:B:t=Recit.	!	!	!	!
2r	2r	.	8a-^/	Spiesz!	Va,
.	.	.	8r	.	.
!	!	!	!LO:TX:a:B:t=Recit.	!	!
.	.	.	8.f/	spiesz	qui
.	.	.	16e-/	po	lo_ad-
=31	=31	=31	=31	=31	=31
1r	1r	.	8e-/	nie-	-du-
.	.	.	8d-/	-go!	-i!
.	.	.	8r	.	.
*	*	*	*clefG2	*	*
=-	=-	=-	=-	=-	=-
*	*	*	*ITrd8c12	*	*
!	!	!	!LO:TX:a:i:t=Ratef.	!	!
!	!	!	!LO:TX:a:t=Ratef.	!	!
.	.	.	8A-/	Na-	M`af-
.	.	.	8G-/	-tych-	-fret-
.	.	.	8F/	-miast.	-to.
.	.	.	4r	.	.
==	==	==	==	==	==
*-	*-	*-	*-	*-	*-
!!!system-decoration: <vox>{(klav)}
!!!RDF**kern: > = above
!!!RDF**kern: < = below
!!!RDF**kern: N = linked
!!!ENC: Filip Voros
!!!END: 2022-09-01
!!!ENC: Andrzej Kubiczek
!!!END: 2022-10-14
!!!YEC: Copyright 2022 Narodowy Instytut Fryderyka Chopina (https://polishscores.org)
!!!YEM: License CC-BY-4.0 (https://creativecommons.org/licenses/by/4.0)
